svg/fluentui-system-icons/ic_fluent_premium_12_regular.svg

<svg width="12" height="12" viewBox="0 0 12 12" fill="none" xmlns="http://www.w3.org/2000/svg">
<path d="M6.98847 1.00014H5.01153C5.00378 0.999954 4.99604 0.999955 4.98833 1.00014H3C2.81062 1.00014 2.63749 1.10714 2.55279 1.27653L1.05279 4.27653C0.968093 4.44592 0.986371 4.64863 1.1 4.80014L5.59309 10.7909C5.60879 10.8129 5.62613 10.8334 5.64488 10.8523C5.69214 10.9 5.74968 10.9388 5.81561 10.9649C5.86671 10.9852 5.92129 10.9972 5.97718 10.9997C5.98969 11.0003 6.00216 11.0004 6.01458 11.0001C6.07316 10.9983 6.13042 10.9863 6.1839 10.9651C6.24957 10.9392 6.30695 10.9007 6.35414 10.8533C6.37327 10.8341 6.39094 10.8133 6.40691 10.7909L10.9 4.80014C11.0136 4.64863 11.0319 4.44592 10.9472 4.27653L9.44722 1.27653C9.36252 1.10714 9.18939 1.00014 9 1.00014H7.01167C7.00396 0.999955 6.99623 0.999954 6.98847 1.00014ZM6.63962 2.00014L7.30629 4.00014H4.69372L5.36038 2.00014H6.63962ZM8.36038 4.00014L7.69372 2.00014H8.69099L9.69099 4.00014H8.36038ZM7.30629 5.00014L6 8.919L4.69372 5.00014H7.30629ZM7.44869 7.73522L8.36038 5.00014H9.5L7.44869 7.73522ZM4.55132 7.73522L2.5 5.00014H3.63962L4.55132 7.73522ZM3.63962 4.00014H2.30902L3.30902 2.00014H4.30629L3.63962 4.00014Z" fill="#212121"/>
</svg>

<svg xmlns="http://www.w3.org/2000/svg" width="12" height="12"><path d="M6.988 1H3a.5.5 0 0 0-.447.277l-1.5 3A.5.5 0 0 0 1.1 4.8l4.493 5.99a.497.497 0 0 0 .59.175.497.497 0 0 0 .224-.174L10.9 4.8a.5.5 0 0 0 .047-.524l-1.5-3A.5.5 0 0 0 9 1H6.988ZM6.64 2l.666 2H4.694l.666-2h1.28Zm1.72 2-.666-2h.997l1 2h-1.33ZM7.306 5 6 8.92 4.694 5h2.612Zm.143 2.735L8.36 5H9.5L7.449 7.735Zm-2.898 0L2.5 5h1.14l.911 2.735ZM3.64 4H2.309l1-2h.997L3.64 4Z"/></svg>
